material/.icons/material/seed-off-outline.svg

<svg xmlns="http://www.w3.org/2000/svg" viewBox="0 0 24 24"><path d="M22.1 21.5L2.4 1.7 1.1 3l4.8 4.8c-2.1 2.7-3.3 6.8-2.7 13 1.1.1 2.2.2 3.2.2 4.5 0 7.7-1.1 9.9-2.8l4.6 4.6 1.2-1.3M6.4 19H5.1c-.2-4.2.5-7.5 2.2-9.8l1.6 1.6C7 13.7 7 17 7 17c1-2 2.1-3.6 3.2-4.9l4.6 4.6c-2 1.5-4.8 2.3-8.4 2.3M10 6.8L8.5 5.3C11.3 3.4 14.7 3 17.2 3c2.1 0 3.5.3 3.5.3s1.4 7-2 12.2L17.2 14c1.9-3.1 1.8-6.9 1.7-8.9-.5-.1-1.1-.1-1.7-.1-2.1 0-4.9.3-7.2 1.8m2.8 2.8l-1.2-1.2C12.9 7.5 14.7 7 17 7c0 0-1.9.6-4.2 2.6z"/></svg>

<?xml version="1.0" encoding="UTF-8"?><!DOCTYPE svg PUBLIC "-//W3C//DTD SVG 1.1//EN" "http://www.w3.org/Graphics/SVG/1.1/DTD/svg11.dtd"><svg xmlns="http://www.w3.org/2000/svg" xmlns:xlink="http://www.w3.org/1999/xlink" version="1.1" id="mdi-seed-off-outline" width="24" height="24" viewBox="0 0 24 24"><path d="M22.1 21.5L2.4 1.7L1.1 3L5.9 7.8C3.8 10.5 2.6 14.6 3.2 20.8C4.3 20.9 5.4 21 6.4 21C10.9 21 14.1 19.9 16.3 18.2L20.9 22.8L22.1 21.5M6.4 19H5.1C4.9 14.8 5.6 11.5 7.3 9.2L8.9 10.8C7 13.7 7 17 7 17C8 15 9.1 13.4 10.2 12.1L14.8 16.7C12.8 18.2 10 19 6.4 19M10 6.8L8.5 5.3C11.3 3.4 14.7 3 17.2 3C19.3 3 20.7 3.3 20.7 3.3S22.1 10.3 18.7 15.5L17.2 14C19.1 10.9 19 7.1 18.9 5.1C18.4 5 17.8 5 17.2 5C15.1 5 12.3 5.3 10 6.8M12.8 9.6L11.6 8.4C12.9 7.5 14.7 7 17 7C17 7 15.1 7.6 12.8 9.6Z" /></svg>
